X:1
T:Joſephine Macdonald
T:March 25, 1999 - Auguſt 20, 2013
T:Beloved Dog
M:3/4
L:1/8
R:Air
C:T. S. Macdonald
K:G
%%text Slow
dc | B3 c AB | G3 A Bd | g3 e dB | c4 dc | B3 c AB | G3 e dc | BA G2 F2 | G4 :|
|: ga | b3 a gf | g4   dB | e3 d cB | c4 ba | b3 a gf | e4  dc |1 BA G2 F2 | G4 :|2 BA GE DB, | G,4 |]

